LR PRESET/Mix2vfx (31).xmp
<x:xmpmeta xmlns:x="adobe:ns:meta/" x:xmptk="Adobe XMP Core 5.6-c140 79.160451, 2017/05/06-01:08:21        ">
 <rdf:RDF xmlns:rdf="http://www.w3.org/1999/02/22-rdf-syntax-ns#">
  <rdf:Description rdf:about=""
    xmlns:crs="http://ns.adobe.com/camera-raw-settings/1.0/"
   crs:PresetType="Normal"
   crs:Cluster=""
   crs:UUID="76456C9E859DA140A08C1CC978644AFF"
   crs:SupportsAmount="False"
   crs:SupportsColor="True"
   crs:SupportsMonochrome="True"
   crs:SupportsHighDynamicRange="True"
   crs:SupportsNormalDynamicRange="True"
   crs:SupportsSceneReferred="True"
   crs:SupportsOutputReferred="True"
   crs:CameraModelRestriction=""
   crs:Copyright=""
   crs:ContactInfo=""
   crs:Version="12.4"
   crs:ProcessVersion="11.0"
   crs:WhiteBalance="Custom"
   crs:IncrementalTemperature="-2"
   crs:IncrementalTint="-6"
   crs:Saturation="-13"
   crs:Sharpness="0"
   crs:LuminanceSmoothing="14"
   crs:ColorNoiseReduction="18"
   crs:ShadowTint="0"
   crs:RedHue="0"
   crs:RedSaturation="-80"
   crs:GreenHue="0"
   crs:GreenSaturation="0"
   crs:BlueHue="-96"
   crs:BlueSaturation="-27"
   crs:Vibrance="+94"
   crs:HueAdjustmentRed="+31"
   crs:HueAdjustmentOrange="-29"
   crs:HueAdjustmentYellow="-97"
   crs:HueAdjustmentGreen="-100"
   crs:HueAdjustmentAqua="-12"
   crs:HueAdjustmentBlue="0"
   crs:HueAdjustmentPurple="0"
   crs:HueAdjustmentMagenta="0"
   crs:SaturationAdjustmentRed="+83"
   crs:SaturationAdjustmentOrange="-37"
   crs:SaturationAdjustmentYellow="+29"
   crs:SaturationAdjustmentGreen="+100"
   crs:SaturationAdjustmentAqua="-24"
   crs:SaturationAdjustmentBlue="-46"
   crs:SaturationAdjustmentPurple="0"
   crs:SaturationAdjustmentMagenta="0"
   crs:LuminanceAdjustmentRed="+12"
   crs:LuminanceAdjustmentOrange="+28"
   crs:LuminanceAdjustmentYellow="+70"
   crs:LuminanceAdjustmentGreen="+4"
   crs:LuminanceAdjustmentAqua="+9"
   crs:LuminanceAdjustmentBlue="0"
   crs:LuminanceAdjustmentPurple="0"
   crs:LuminanceAdjustmentMagenta="0"
   crs:SplitToningShadowHue="179"
   crs:SplitToningShadowSaturation="2"
   crs:SplitToningHighlightHue="309"
   crs:SplitToningHighlightSaturation="1"
   crs:SplitToningBalance="0"
   crs:ParametricShadows="0"
   crs:ParametricDarks="0"
   crs:ParametricLights="0"
   crs:ParametricHighlights="0"
   crs:ParametricShadowSplit="33"
   crs:ParametricMidtoneSplit="57"
   crs:ParametricHighlightSplit="82"
   crs:PostCropVignetteAmount="-36"
   crs:PostCropVignetteMidpoint="50"
   crs:PostCropVignetteFeather="50"
   crs:PostCropVignetteRoundness="0"
   crs:PostCropVignetteStyle="1"
   crs:PostCropVignetteHighlightContrast="22"
   crs:GrainAmount="0"
   crs:LuminanceNoiseReductionDetail="61"
   crs:ColorNoiseReductionDetail="72"
   crs:LuminanceNoiseReductionContrast="10"
   crs:ColorNoiseReductionSmoothness="64"
   crs:AutoLateralCA="0"
   crs:Exposure2012="+0.20"
   crs:Contrast2012="-10"
   crs:Highlights2012="-91"
   crs:Shadows2012="+17"
   crs:Whites2012="-65"
   crs:Blacks2012="-50"
   crs:Clarity2012="+11"
   crs:DefringePurpleAmount="0"
   crs:DefringePurpleHueLo="30"
   crs:DefringePurpleHueHi="70"
   crs:DefringeGreenAmount="0"
   crs:DefringeGreenHueLo="40"
   crs:DefringeGreenHueHi="60"
   crs:Dehaze="+8"
   crs:Texture="+1"
   crs:OverrideLookVignette="True"
   crs:ToneCurveName2012="Custom"
   crs:HasSettings="True">
   <crs:Name>
    <rdf:Alt>
     <rdf:li xml:lang="x-default">www.rajaneditz.com 12</rdf:li>
    </rdf:Alt>
   </crs:Name>
   <crs:ShortName>
    <rdf:Alt>
     <rdf:li xml:lang="x-default"/>
    </rdf:Alt>
   </crs:ShortName>
   <crs:SortName>
    <rdf:Alt>
     <rdf:li xml:lang="x-default"/>
    </rdf:Alt>
   </crs:SortName>
   <crs:Group>
    <rdf:Alt>
     <rdf:li xml:lang="x-default">www.rajaneditz.com 100+</rdf:li>
    </rdf:Alt>
   </crs:Group>
   <crs:Description>
    <rdf:Alt>
     <rdf:li xml:lang="x-default"/>
    </rdf:Alt>
   </crs:Description>
   <crs:ToneCurvePV2012>
    <rdf:Seq>
     <rdf:li>0, 36</rdf:li>
     <rdf:li>57, 72</rdf:li>
     <rdf:li>128, 129</rdf:li>
     <rdf:li>191, 191</rdf:li>
     <rdf:li>253, 255</rdf:li>
    </rdf:Seq>
   </crs:ToneCurvePV2012>
   <crs:ToneCurvePV2012Red>
    <rdf:Seq>
     <rdf:li>3, 0</rdf:li>
     <rdf:li>63, 62</rdf:li>
     <rdf:li>255, 255</rdf:li>
    </rdf:Seq>
   </crs:ToneCurvePV2012Red>
   <crs:ToneCurvePV2012Green>
    <rdf:Seq>
     <rdf:li>4, 0</rdf:li>
     <rdf:li>65, 60</rdf:li>
     <rdf:li>127, 126</rdf:li>
     <rdf:li>255, 255</rdf:li>
    </rdf:Seq>
   </crs:ToneCurvePV2012Green>
   <crs:ToneCurvePV2012Blue>
    <rdf:Seq>
     <rdf:li>0, 8</rdf:li>
     <rdf:li>66, 60</rdf:li>
     <rdf:li>127, 123</rdf:li>
     <rdf:li>255, 255</rdf:li>
    </rdf:Seq>
   </crs:ToneCurvePV2012Blue>
   <crs:Look>
    <rdf:Description
     crs:Name="Artistic 03"
     crs:Amount="1.000000"
     crs:Cluster="Adobe"
     crs:UUID="5E446105ADA1B13B89A0B673FB16ABA1"
     crs:SupportsMonochrome="false"
     crs:Copyright="© 2018 Adobe Systems, Inc."
     crs:Stubbed="true">
    <crs:Group>
     <rdf:Alt>
      <rdf:li xml:lang="x-default">Artistic</rdf:li>
     </rdf:Alt>
    </crs:Group>
    </rdf:Description>
   </crs:Look>
  </rdf:Description>
 </rdf:RDF>
</x:xmpmeta>
